X:17
T:Longfield Reel
C:James Lamb
%
P:the Dawn Express
C:Traditional
R:reel
N:Suggested tune for Longfield Reel
B:RSCDS "A Second Book of Graded Scottish Country Dances" (Graded 2) p.35 #17
Z:2011 John Chambers <jc:trillian.mit.edu>
M:2/4
L:1/16
K:Am
e2 |:\
"Am"A2A2 "E/Am"ABcd | "Am"e2a2 "D7"A3c | "G"B2d2 "D7"G3A | "G"BcdB "Em"GABG |
"Am"A2A2 "E/Am"ABcd | "C/Am"e2a2 "D7"A3c | "G"B2d2 "Em"GABG | "Am"A4 A2"E7"e2 :|
|:\
"Am"a2a2 "G#/E7"e^gab | "Am"a2a2 "D7"e3^f | "G"g2g2 "Em"GABc | "Bm"d2B2 "Em"G3e |
"Am"a2a2 "B/E7"e^gab | "C"a2a2 "Dm"e3d | "E/Am"c3d "G#/E7"edcB |1 "Am"A4 A2"E7"e2 :|2 "Am"A4- A2 |]
